icons/i_note_action.svg

<svg width="48" height="48" viewBox="0 0 48 48" fill="none" xmlns="http://www.w3.org/2000/svg">
<path d="M26 6C26.5523 6 27 6.44772 27 7V11C27 11.5523 26.5523 12 26 12C25.4477 12 25 11.5523 25 11V10H19.0001L19.0001 8H25V7C25 6.44772 25.4477 6 26 6Z" fill="black"/>
<path d="M16 6C15.4477 6 15 6.44772 15 7V8H13C11.3431 8 10 9.34315 10 11V35C10 36.6569 11.3431 38 13 38H30C31.6569 38 33 36.6569 33 35V11C33 9.34315 31.6569 8 30 8H29.0001V10H30C30.5523 10 31 10.4477 31 11V35C31 35.5523 30.5523 36 30 36H13C12.4477 36 12 35.5523 12 35V11C12 10.4477 12.4477 10 13 10H15V11C15 11.5523 15.4477 12 16 12C16.5523 12 17 11.5523 17 11V7C17 6.44772 16.5523 6 16 6Z" fill="black"/>
<path d="M14 19C14 18.4477 14.4477 18 15 18H28C28.5523 18 29 18.4477 29 19C29 19.5523 28.5523 20 28 20H15C14.4477 20 14 19.5523 14 19Z" fill="black"/>
<path d="M15 23C14.4477 23 14 23.4477 14 24C14 24.5523 14.4477 25 15 25H22C22.5523 25 23 24.5523 23 24C23 23.4477 22.5523 23 22 23H15Z" fill="black"/>
<path d="M14 29C14 28.4477 14.4477 28 15 28H26C26.5523 28 27 28.4477 27 29C27 29.5523 26.5523 30 26 30H15C14.4477 30 14 29.5523 14 29Z" fill="black"/>
<path d="M13 40C10.2386 40 8 37.7614 8 35V10H6V35C6 38.866 9.13401 42 13 42H30V40H13Z" fill="black"/>
<path fill-rule="evenodd" clip-rule="evenodd" d="M36 13C36 11.3431 37.3431 10 39 10C40.6569 10 42 11.3431 42 13V33.3028L39 37.8028L36 33.3028V13ZM39 12C38.4477 12 38 12.4477 38 13V15H40V13C40 12.4477 39.5523 12 39 12ZM39 34.1972L40 32.6972V17H38V32.6972L39 34.1972Z" fill="black"/>
</svg>

<svg
  xmlns="http://www.w3.org/2000/svg"
  width="24"
  height="24"
  viewBox="0 0 24 24"
  fill="none"
  stroke="currentColor"
  stroke-width="2"
  stroke-linecap="round"
  stroke-linejoin="round"
>
  <path d="M26 6a1 1 0 0 1 1 1v4a1 1 0 1 1-2 0v-1h-6V8h6V7a1 1 0 0 1 1-1" />
  <path d="M16 6a1 1 0 0 0-1 1v1h-2a3 3 0 0 0-3 3v24a3 3 0 0 0 3 3h17a3 3 0 0 0 3-3V11a3 3 0 0 0-3-3h-1v2h1a1 1 0 0 1 1 1v24a1 1 0 0 1-1 1H13a1 1 0 0 1-1-1V11a1 1 0 0 1 1-1h2v1a1 1 0 1 0 2 0V7a1 1 0 0 0-1-1" />
  <path d="M14 19a1 1 0 0 1 1-1h13a1 1 0 1 1 0 2H15a1 1 0 0 1-1-1" />
  <path d="M15 23a1 1 0 1 0 0 2h7a1 1 0 1 0 0-2z" />
  <path d="M14 29a1 1 0 0 1 1-1h11a1 1 0 1 1 0 2H15a1 1 0 0 1-1-1" />
  <path d="M13 40a5 5 0 0 1-5-5V10H6v25a7 7 0 0 0 7 7h17v-2z" />
  <path
    fill-rule="evenodd"
    d="M36 13a3 3 0 1 1 6 0v20.303l-3 4.5-3-4.5zm3-1a1 1 0 0 0-1 1v2h2v-2a1 1 0 0 0-1-1m0 22.197 1-1.5V17h-2v15.697z"
    clip-rule="evenodd"
  />
</svg>
